X:1
T:Bilder einer Ausstellung: 2.Das alte Schloss
T:Bilder einer Ausstellung: 2.Das alte Schloss
T:Phillip: Holzbläserensemble 
T:Modest Petrowitsch Mussorgski
C:Modeste Moussorgsky
%%score [ 1 2 3 4 ]
L:1/8
M:6/8
K:B
V:1 treble nm="Flöten" snm="Fl."
V:2 treble nm="Oboen" snm="Ob."
V:3 treble transpose=-2 nm="Klarinetten in B" snm="Kl. (B)"
V:4 bass nm="Fagott" snm="Fg."
V:1
!pp! d6- | d2 d .d.d.d | (d>e).d (.f.e.d) | (c>d).c (.e.d.c) | (B2 c dcB) | (A>B).A (.c.B.A) | %6
 (B3 G3) | d6- | d3 e3 | d6- | d3 e3 | d6 | e6 |] %13
V:2
!pp! G6- | G3 G3 | G3 G3 | G3 G3 | G3- G2 z | G3- G2 z | G2 G G2 G | G2 G G2 G | G2 G G2 G | %9
 G2 G G2 G | G2 G G2 G | G2 G G2 G | G2 G G2 G |] %13
V:3
 ^E6- | E2 ^E .E.E.E | (^E>F).E (.G.F.E) | (D>^E).D (.F.E.D) | (C2 D ^EDC) | (^B,>C).B, (.D.C.B,) | %6
 (C3 A,3) | ^E,6- | E,3 F,3 | ^E,6- | E,3 F,3 | ^E,6 | F,6 |] %13
V:4
 G,6- | G,3 G,3 | G,3 G,3 | G,3 G,3 | G,3- G,2 z | G,3- G,2 z | G,,2 G,, G,,2 G,, | %7
 G,,2 G,, G,,2 G,, | G,,2 G,, G,,2 G,, | G,,2 G,, G,,2 G,, | G,,2 G,, G,,2 G,, | %11
 G,,2 G,, G,,2 G,, | G,,2 G,, G,,2 G,, |] %13

